X: 2
T: Quarry Cross
R: March
M: 4/4
L: 1/4
Q: 232
K: Edor
B>A|:GE ED|B,E E2|G>F ED|GA B>A |
GE ED|B,E E2|B>A GF|E2 B>A:|
|:Be ef|eB BA|Be df|e2 ef|
g2 f2|ed BA|BE E/F/G/A/|B2 B>A:|
